!!!!SEGMENT: pl-cz--d-ii-40--003_elsner-jozef--requiem-in-c-op-42-lacrimosa.krn
!!!cenid: 18xx:32
!!!COM: Elsner, Józef
!!!COM-rismID: pe30000957
!!!CDT: 1769/06/01-1854/04/18
!!!CNT: Polish
!!!OPR: Requiem in C op. 42
!!!OTL: Lacrimosa
!!!OMV: 003
!!!PDT:
!!!AGN: Sacred; Requiem
!!!SMS-siglum: PL-CZ
!!!SMS-shelfmark: dii-40
!!!SMS-shelfwork: 001-003 M
!!!NIFC-rismSourceID: 300000265
!!!NIFC-rismChildID: 300000265
!!!NIFC-islandoraID: pl-cz:35407
!!!URL-pdf-islandora: https://repozytorium.nifc.pl/islandora/object/pl-cz%3A35407/datastream/PDF/view
!!!URL-scan: https://polish.musicsources.pl/pl/lokalizacje/galeria/rekopisy/6855/1 @EN{Scan on Polish Music Sources Website} @PL{Skany w portalu Dziedzictwo Muzyki Polskiej w otwartym dostępie}
!!!IIIF:
!!!ONB-nifc:
!!!AIN: 1 bass 1 cello 1 cor 4 empty 1 fagot 2 tenor 1 timpa 2 tromt
!!!key:
**kern	**dynam	**kern	**kern	**dynam	**kern	**dynam	**kern	**dynam	**kern	**dynam	**kern	**dynam	**kern	**kern	**dynam	**kern	**text	**kern	**text	**dynam	**kern	**text	**dynam
*part12	*part12	*part11	*part10	*part10	*part9	*part9	*part8	*part8	*part7	*part7	*part6	*part6	*part5	*part4	*part4	*part3	*part3	*part2	*part2	*part2	*part1	*part1	*part1
*staff12	*	*staff11	*staff10	*	*staff9	*	*staff8	*	*staff7	*	*staff6	*	*staff5	*staff4	*	*staff3	*staff3	*staff2	*staff2	*	*staff1	*staff1	*
*Iempty	*	*Itimpa	*Iempty	*	*Icor	*	*Itromt	*	*Itromt	*	*Iempty	*	*Icello&Ifagot	*Iempty	*	*Ibass	*	*Itenor	*	*	*Itenor	*	*
*I"Bassi	*	*I"Timpani in Es C G	*I"Clarini in C	*	*I"Corni in F	*	*I"Trombone III	*	*I"Trombone II	*	*	*	*I"Violoncello II con Fagotto	*	*	*I"Basso	*	*I"Tenore II	*	*	*I"Tenore I	*	*
*I'Bassi	*	*I'tmp	*	*	*	*	*I'Tbn III	*	*I'Tbn II	*	*I'Tbn I	*	*I'Vc II con Fg	*I'Vc I con. Fg	*	*I'B	*	*I'T II	*	*	*I'T I	*	*
*clefF4	*	*clefF4	*clefG2	*	*clefG2	*	*clefF4	*	*clefC4	*	*clefC4	*	*clefF4	*clefC4	*	*clefF4	*	*clefC4	*	*	*clefC4	*	*
*	*	*	*	*	*ITrd4c7	*	*	*	*	*	*	*	*	*	*	*	*	*	*	*	*	*	*
*k[b-e-a-]	*	*k[]	*k[]	*	*k[b-]	*	*k[b-e-a-]	*	*k[b-e-a-]	*	*k[b-e-a-]	*	*k[b-e-a-]	*k[b-e-a-]	*	*k[b-e-a-]	*	*k[b-e-a-]	*	*	*k[b-e-a-]	*	*
*c:	*	*	*	*	*	*	*c:	*	*c:	*	*c:	*	*c:	*c:	*	*c:	*	*c:	*	*	*c:	*	*
*M4/4	*	*M4/4	*M4/4	*	*M4/4	*	*M4/4	*	*M4/4	*	*M4/4	*	*M4/4	*M4/4	*	*M4/4	*	*M4/4	*	*	*M4/4	*	*
*met(c)	*	*met(c)	*met(c)	*	*met(c)	*	*met(c)	*	*met(c)	*	*met(c)	*	*met(c)	*met(c)	*	*met(c)	*	*met(c)	*	*	*met(c)	*	*
=1	=1	=1	=1	=1	=1	=1	=1	=1	=1	=1	=1	=1	=1	=1	=1	=1	=1	=1	=1	=1	=1	=1	=1
!	!	!	!	!	!	!	!	!	!	!	!	!	!	!	!	!	!	!	!	!	!LO:TX:a:Bi:t=Andante	!	!
1r	.	1r	1r	.	1r	.	1r	.	1r	.	1r	.	1r	1r	.	4r	.	4r	.	.	2r	.	.
.	.	.	.	.	.	.	.	.	.	.	.	.	.	.	.	8.F\	La-	8.A-\	La-	p	.	.	.
.	.	.	.	.	.	.	.	.	.	.	.	.	.	.	.	16F\	-cri-	16A-\	-cri-	.	.	.	.
.	.	.	.	.	.	.	.	.	.	.	.	.	.	.	.	4F\	-mo-	4A-\	-mo-	.	4r	.	.
.	.	.	.	.	.	.	.	.	.	.	.	.	.	.	.	4F\	-sa	4A-\	-sa	.	8.Bn\	La-	p
.	.	.	.	.	.	.	.	.	.	.	.	.	.	.	.	.	.	.	.	.	(>16c\	-cri-	.
=2	=2	=2	=2	=2	=2	=2	=2	=2	=2	=2	=2	=2	=2	=2	=2	=2	=2	=2	=2	=2	=2	=2	=2
1r	.	1r	1r	.	1r	.	1r	.	1r	.	1r	.	1r	1r	.	4r	.	4r	.	.	8.c\L	-mo-	.
.	.	.	.	.	.	.	.	.	.	.	.	.	.	.	.	.	.	.	.	.	16A-\Jk	.	.
.	.	.	.	.	.	.	.	.	.	.	.	.	.	.	.	8.F\	di-	8.A-\	di-	.	4F/)	-sa	.
.	.	.	.	.	.	.	.	.	.	.	.	.	.	.	.	16F\	-es	16A-\	-es	.	.	.	.
.	.	.	.	.	.	.	.	.	.	.	.	.	.	.	.	4F\	il-	4A-\	il-	.	4r	.	.
.	.	.	.	.	.	.	.	.	.	.	.	.	.	.	.	4F\	-la,	4A-\	-la,	.	8.c\	di-	.
.	.	.	.	.	.	.	.	.	.	.	.	.	.	.	.	.	.	.	.	.	(>16d-X\	-es	.
=3	=3	=3	=3	=3	=3	=3	=3	=3	=3	=3	=3	=3	=3	=3	=3	=3	=3	=3	=3	=3	=3	=3	=3
2r	.	1r	1r	.	1r	.	1r	.	1r	.	1r	.	2r	2r	.	4En\	qua	4G/	qua	.	8.d-X\L	il-	.
.	.	.	.	.	.	.	.	.	.	.	.	.	.	.	.	.	.	.	.	.	16B-\Jk	.	.
.	.	.	.	.	.	.	.	.	.	.	.	.	.	.	.	4E\	re-	4G/	re-	.	4G/)	-la,	.
4r	.	.	.	.	.	.	.	.	.	.	.	.	4r	4r	.	4E\	-sur-	4G/	-sur-	.	4r	.	.
!	!LO:DY:a	!	!	!	!	!	!	!	!	!	!	!	!	!	!	!	!	!	!	!	!	!	!
4En\	p	.	.	.	.	.	.	.	.	.	.	.	4G\	4c\	.	4E\	-get	4G/	-get	.	8.c\	qua	.
.	.	.	.	.	.	.	.	.	.	.	.	.	.	.	.	.	.	.	.	.	16c\	re-	.
=4	=4	=4	=4	=4	=4	=4	=4	=4	=4	=4	=4	=4	=4	=4	=4	=4	=4	=4	=4	=4	=4	=4	=4
!	!LO:HP:a	!	!	!	!	!	!	!	!	!	!	!	!	!	!	!	!	!	!	!	!	!	!
2F\	<	1r	1r	.	1r	.	2r	.	2r	.	2r	.	2A-\	(>4c\	.	4F\	ex	4A-\	ex	.	8.c\	-sur-	.
.	.	.	.	.	.	.	.	.	.	.	.	.	.	.	.	.	.	.	.	.	16c\	-get	<
.	.	.	.	.	.	.	.	.	.	.	.	.	.	4d-X\	<	4F\	fa-	4A-\	fa-	.	8.d-X\	ex	.
.	.	.	.	.	.	.	.	.	.	.	.	.	.	.	.	.	.	.	.	.	16d-\	fa-	.
4F\	.	.	.	.	.	.	4r	.	4r	.	4r	.	4A-\	4dn\	.	8.F\	-vil-	8.A-\	-vil-	.	8.dn\	-vil-	.
.	.	.	.	.	.	.	.	.	.	.	.	.	.	.	.	16F\	-la	16A-\	-la,	.	16d\	-la,	[
[4E-X\~	.	.	.	.	.	.	[4E-\	.	4G-X/	.	4B-\	.	4G-X\	4e-\)	[	8.E-X\	ju-	8.G-X\	ju-	.	8.e-\	ju-	.
.	[[	.	.	.	.	.	.	.	.	.	.	.	.	.	.	16E-\	-di-	16G-/	-di-	.	16e-\	-di-	.
=5	=5	=5	=5	=5	=5	=5	=5	=5	=5	=5	=5	=5	=5	=5	=5	=5	=5	=5	=5	=5	=5	=5	=5
!	!LO:HP:a	!	!	!	!LO:S:s=2:note:problem=note-level slur	!	!	!	!	!	!	!	!	!	!	!	!	!	!	!	!	!	!
2E-\~]	>	1r	1r	.	1F/ (>1f/	]]	2E-\]	.	1F/	.	(>2B-\	>	1F\	2B-\	>	8.E-\	-can-	8.F/	-can-	.	8.B-\	-can-	>
.	.	.	.	.	.	.	.	.	.	>	.	.	.	.	.	16E-\	-dus	16F/	-dus	.	16B-\	-dus	.
.	.	.	.	.	.	.	.	.	.	.	.	.	.	.	.	8.E-\	ho-	8.F/	ho-	.	8.B-\	ho-	.
.	.	.	.	.	.	.	.	.	.	.	.	.	.	.	]	16E-\	-mo	16F/	-mo	.	16B-\	-mo	.
!	!	!	!	!	!	!	!	!LO:HP:a	!	!	!	!	!	!	!	!	!	!	!	!	!	!	!
.	.	.	.	.	.	.	.	<	.	]	.	.	.	.	.	.	.	.	.	.	.	.	]
2D\	.	.	.	.	.	.	2D\	.	.	.	4.B-\	.	.	4.B-\	.	2D\	re-	2F/	re-	.	4.B-\	re-	.
.	]	.	.	.	.	.	.	[[	.	.	8Bn\)	]	.	8Bn\	.	.	.	.	.	.	(>8Bn\	.	.
=6	=6	=6	=6	=6	=6	=6	=6	=6	=6	=6	=6	=6	=6	=6	=6	=6	=6	=6	=6	=6	=6	=6	=6
!	!	!	!	!	!LO:S:s=2:note:problem=note-level slur	!	!	!	!	!	!	!	!	!	!	!	!	!	!	!	!	!	!
4C/	[	1r	1r	.	4C/ 4c/)	]	4C/	.	4E-/	]	4c\	.	4E-\	4c\	.	4C/	-us,	4E-/	-us,	.	4c\)	-us,	.
4r	.	.	.	.	4r	.	4r	.	4r	.	4r	.	4r	4r	.	4r	.	8.c\	La-	.	8.e-\	La-	p
.	.	.	.	.	.	.	.	.	.	.	.	.	.	.	.	.	.	16c\	-cri-	.	16e-\	-cri-	.
2r	.	.	.	.	2r	.	2r	.	2r	.	2r	.	2r	2r	.	4r	.	4c\	-mo-	.	4e-\	-mo-	.
.	.	.	.	.	.	.	.	.	.	.	.	.	.	.	.	8.F#X\	La-	4c\	-sa	.	4e-\	-sa	.
.	.	.	.	.	.	.	.	.	.	.	.	.	.	.	.	16G\	-cri-	.	.	.	.	.	.
=7	=7	=7	=7	=7	=7	=7	=7	=7	=7	=7	=7	=7	=7	=7	=7	=7	=7	=7	=7	=7	=7	=7	=7
1r	.	1r	1r	.	1r	.	1r	.	1r	.	1r	.	1r	1r	.	(>8.G\L	-mo-	4r	.	.	4r	.	.
.	.	.	.	.	.	.	.	.	.	.	.	.	.	.	.	16E-\Jk)	.	.	.	.	.	.	.
.	.	.	.	.	.	.	.	.	.	.	.	.	.	.	.	4C/	-sa	8.c\	di-	.	8.e-\	di-	.
.	.	.	.	.	.	.	.	.	.	.	.	.	.	.	.	.	.	16c\	-es	.	16e-\	-es	.
.	.	.	.	.	.	.	.	.	.	.	.	.	.	.	.	4r	.	4c\	il-	.	4e-\	il-	.
.	.	.	.	.	.	.	.	.	.	.	.	.	.	.	.	8.G\	di-	4c\	-la,	.	4e-\	-la,	.
.	.	.	.	.	.	.	.	.	.	.	.	.	.	.	.	16A-\	-es	.	.	.	.	.	.
=8	=8	=8	=8	=8	=8	=8	=8	=8	=8	=8	=8	=8	=8	=8	=8	=8	=8	=8	=8	=8	=8	=8	=8
2r	.	1r	1r	.	1r	.	1r	.	1r	.	1r	.	2r	2r	.	(>8.A-\L	il-	4Bn\	qua	.	4d\	qua	.
.	.	.	.	.	.	.	.	.	.	.	.	.	.	.	.	16F\Jk)	.	.	.	.	.	.	.
.	.	.	.	.	.	.	.	.	.	.	.	.	.	.	.	4D\	-la,	4B\	re-	.	4d\	re-	.
4r	.	.	.	.	.	.	.	.	.	.	.	.	4r	4r	.	4r	.	4B\	-sur-	.	4d\	-sur-	.
!	!LO:DY:a	!	!	!	!	!	!	!	!	!	!	!	!	!	!	!	!	!	!	!	!	!	!
4G\	p	.	.	.	.	.	.	.	.	.	.	.	4Bn\	4d\	.	8.G\	qua	4B\	-get	.	4d\	-get	.
.	.	.	.	.	.	.	.	.	.	.	.	.	.	.	.	16G\	re-	.	.	.	.	.	.
=9	=9	=9	=9	=9	=9	=9	=9	=9	=9	=9	=9	=9	=9	=9	=9	=9	=9	=9	=9	=9	=9	=9	=9
!!LO:PB:g=original
(>4G\	<	1r	1r	.	1r	.	2r	.	2r	.	2r	.	2c\	2e-\	.	8.G\	-sur-	4c\	ex	.	4e-\	ex	<
.	.	.	.	.	.	.	.	.	.	.	.	.	.	.	.	16G\	-get	.	.	.	.	.	.
4A-\	.	.	.	.	.	.	.	.	.	.	.	.	.	.	.	8.A-\	ex	4c\	fa-	.	4e-\	fa-	.
.	.	.	.	.	.	.	.	.	.	.	.	.	.	.	.	16A-\	fa-	.	.	.	.	.	.
!	!	!	!	!	!	!	!	!	!	!	!	!	!	!	!LO:HP:a	!	!	!	!	!	!	!	!
4An\	[	.	.	.	.	.	4r	.	4r	.	4r	.	4c\	4e-\	<	8.An\	-vil-	8.c\	-vil-	.	8.e-\	-vil-	.
.	.	.	.	.	.	.	.	.	.	.	.	.	.	.	.	16A\	-la	16c\	-la	.	16e-\	-la	.
4B-\)	.	.	.	.	.	.	4B-\	.	[4B-\	.	4d-X\	.	[4B-X\	4d-X\	.	8.B-\	ju-	8.B-X\	ju-	.	8.d-X\	ju-	.
.	.	.	.	.	.	.	.	.	.	.	.	.	.	.	[	16B-\	-di-	16B-\	-di-	.	16d-\	-di-	[
=10	=10	=10	=10	=10	=10	=10	=10	=10	=10	=10	=10	=10	=10	=10	=10	=10	=10	=10	=10	=10	=10	=10	=10
!	!	!	!	!	!	!	!	!	!	!	!	!	!	!	!LO:HP:a	!	!	!	!	!	!	!	!
2F\	>	1r	1c/ 1cc/	]]	1r	.	2F\	.	2B-\]	.	1c\	.	2B-\]	1c\	>	8.F\	-can-	8.B-\	-can-	.	8.c\	-can-	>
.	.	.	.	.	.	.	.	.	.	.	.	>	.	.	.	16F\	-dus	16B-\	-dus	.	16c\	-dus	.
.	.	.	.	.	.	.	.	.	.	.	.	.	.	.	.	8.F\	ho-	8.B-\	ho-	.	8.c\	ho-	.
.	.	.	.	.	.	.	.	.	.	.	.	]	.	.	.	16F\	-mo	16B-\	-mo	.	16c\	-mo	]
4.F\	]	.	.	.	.	.	4.F\	.	2An\	.	.	.	2An\	.	]	(>4.F\	re-	2An\	re-	.	2c\	re-	.
8F#X\	.	.	.	.	.	.	8F#X\	.	.	.	.	.	.	.	.	8F#X\)	.	.	.	.	.	.	.
=11	=11	=11	=11	=11	=11	=11	=11	=11	=11	=11	=11	=11	=11	=11	=11	=11	=11	=11	=11	=11	=11	=11	=11
!	!	!	!	!	!	!	!	!	!	!	!	!	!	!	!	!	!	!	!	!	!LO:TX:a:i:t=dolce.	!	!
4G\	.	1r	4G/ 4g/	]	1r	.	4G\	.	4B-\	.	4B-\	]	4B-\	4B-\	[	4G\	-us	4B-\	-us	.	4B-\	-us	.
8.G\L	.	.	4r	.	.	.	4r	.	4r	.	4r	.	8.B-\L	8.B-\L	.	8.G\	Hu-	8.B-\	Hu-	.	8.B-\	Hu-	.
16G\Jk	.	.	.	.	.	.	.	.	.	.	.	.	16B-\Jk	16B-\Jk	.	16G\	-ic	16B-\	-ic	.	16B-\	-ic	.
4G\	.	.	2r	.	.	.	2r	.	2r	.	2r	.	4B-\	4B-\	.	4G\	er-	4B-\	er-	.	4B-\	er-	.
4G\	.	.	.	.	.	.	.	.	.	.	.	.	4B-\	4B-\	.	4G\	-go	4B-\	-go	.	4B-\	-go	.
=12	=12	=12	=12	=12	=12	=12	=12	=12	=12	=12	=12	=12	=12	=12	=12	=12	=12	=12	=12	=12	=12	=12	=12
4Fn\	.	1r	1r	.	1r	.	1r	.	1r	.	1r	.	4A-X\	4d\	.	4Fn\	par-	4A-X\	par-	.	4d\	par-	.
4E-\	.	.	.	.	.	.	.	.	.	.	.	.	4G\	(>4e-\	.	4E-\	-ce	4G/	-ce	.	(>4e-\	-ce	.
2BB-/	.	.	.	.	.	.	.	.	.	.	.	.	4.F\	8e-\L	.	2BB-/	De-	(<4.F/	De-	.	8e-\L	De-	.
.	.	.	.	.	.	.	.	.	.	.	.	.	.	16d\L	.	.	.	.	.	.	16d\L	.	.
.	.	.	.	.	.	.	.	.	.	.	.	.	.	16c\JJ)	.	.	.	.	.	.	16c\JJ)	.	.
.	.	.	.	.	.	.	.	.	.	.	.	.	.	8.d\L	.	.	.	.	.	.	8.d\L	.	.
.	.	.	.	.	.	.	.	.	.	.	.	.	8G\	.	.	.	.	8G/)	.	.	.	.	.
.	.	.	.	.	.	.	.	.	.	.	.	.	.	16e-\Jk	.	.	.	.	.	.	16e-\Jk	.	.
=13	=13	=13	=13	=13	=13	=13	=13	=13	=13	=13	=13	=13	=13	=13	=13	=13	=13	=13	=13	=13	=13	=13	=13
4E-\	.	1r	1r	.	4r	.	4r	.	4r	.	4r	.	4G\	(>4e-\	.	4E-\	-us.	4G/	-us.	.	4e-\	-us	.
2E-\^<	.	.	.	.	2e-X\	.	2E-\	.	2A-\	.	(>2c\	.	(>2A-\	2c\^)	.	2E-\	pie	2A-/	pie	.	(>2c\^	pie	.
4E-\	.	.	.	.	4e-\	.	4E-\	.	4G/	.	4B-\	.	4G\	4B-\	.	4E-\	.	4G/	.	.	4B-\)	.	.
=14	=14	=14	=14	=14	=14	=14	=14	=14	=14	=14	=14	=14	=14	=14	=14	=14	=14	=14	=14	=14	=14	=14	=14
2E-\	.	1r	1r	.	2e-X\	.	2.E-\	.	(<2F#X/	.	2An\)	.	2F#X\)	2An\	.	2E-\	Je-	2F#X/	Je-	.	2An\	Je-	.
4E-\	.	.	.	.	2r	.	.	.	4G/)	.	4B-\	.	4G\	4B-\	.	4E-\	-su	4G/	-su	.	4B-\	-su	.
4D\	.	.	.	.	.	.	4D/	.	4Fn/	.	4Bn\	.	4Fn\	4Bn\	.	(>4D\	Do-	4Fn/	Do-	.	4Bn\	Do-	.
=15	=15	=15	=15	=15	=15	=15	=15	=15	=15	=15	=15	=15	=15	=15	=15	=15	=15	=15	=15	=15	=15	=15	=15
4C/	.	1r	1r	.	1r	.	4C/	.	4E-/	.	4c\	.	4E-\	4c\	.	4C/	.	4E-/	.	.	4c\	.	.
(<4BBn/	.	.	.	.	.	.	4BBn/	.	2G/	.	4d\	.	2G\	4d\	.	4BBn/)	.	2G/	.	.	4d\	.	.
4.C/	.	.	.	.	.	.	4C/	.	.	.	4e-\	.	.	(>4.e-\	.	4.C/	.	.	.	.	4.e-\	.	.
.	.	.	.	.	.	.	4r	.	4r	.	4r	.	4F#X\	.	.	.	.	4F#X/	-mi-	.	.	.	.
16D/LL	.	.	.	.	.	.	.	.	.	.	.	.	.	16d\LL	.	16D/LL	-mi-	.	.	.	16d\LL	-mi-	.
16E-/JJ)	.	.	.	.	.	.	.	.	.	.	.	.	.	16c\JJ	.	16E-/JJ	.	.	.	.	16c\JJ	.	.
=16	=16	=16	=16	=16	=16	=16	=16	=16	=16	=16	=16	=16	=16	=16	=16	=16	=16	=16	=16	=16	=16	=16	=16
4GG/	.	1r	1r	.	[>1g/	p	4r	.	1r	.	1r	.	2.G\	2.Bn\)	.	4GG/	-ne	2.G/	-ne	.	2.Bn\	-ne	.
2G\^	.	.	.	.	.	.	2G\^	.	.	.	.	.	.	.	.	2G\^	do-	.	.	.	.	.	.
4F\	.	.	.	.	.	.	4F\	.	.	.	.	.	4r	4r	.	4F\	-na	4r	.	.	4r	.	.
=17	=17	=17	=17	=17	=17	=17	=17	=17	=17	=17	=17	=17	=17	=17	=17	=17	=17	=17	=17	=17	=17	=17	=17
2E-\	.	1r	1r	.	1g/]	.	2E-\	.	4r	.	1r	.	4r	1r	.	2E-\	e-	4r	.	.	1r	.	.
.	.	.	.	.	.	.	.	.	2c\^	.	.	.	(>2c\	.	.	.	.	2c\^	do-	.	.	.	.
2En\	.	.	.	.	.	.	2En\	.	.	.	.	.	.	.	.	2En\	.	.	.	.	.	.	.
.	.	.	.	.	.	.	.	.	4B-\	.	.	.	4B-\	.	.	.	.	4B-\	-na	.	.	.	.
=18	=18	=18	=18	=18	=18	=18	=18	=18	=18	=18	=18	=18	=18	=18	=18	=18	=18	=18	=18	=18	=18	=18	=18
*	*	*	*	*	*^	*	*	*	*	*	*	*	*	*	*	*	*	*	*	*	*	*	*
!	!	!	!	!	!	!	!	!	!	!	!	!	!	!LO:TX:a:t=P:problem=brak zakończenia łuku	!	!	!	!	!	!	!	!	!	!
2F\	.	1r	1r	.	2a-X/	2f\	.	2F\	.	2A-\	.	4r	.	2A-\)	4r	.	2F\	.	2A-\	e-	.	4r	.	.
!	!	!	!	!	!	!	!	!	!	!	!	!	!	!	!	!	!	!	!	!	!	!LO:TX:a:t=P:problem=odwrócony znak akcentu	!	!
.	.	.	.	.	.	.	.	.	.	.	.	2d\	.	.	(>2d\^	.	.	.	.	.	.	2d\^	do-	.
2F#X\	.	.	.	.	2r	2ryy	.	2F#X\	.	2An\	.	.	.	2An\	.	.	2F#X\	.	2An\	.	.	.	.	.
.	.	.	.	.	.	.	.	.	.	.	.	(>4c\	.	.	4c\)	.	.	.	.	.	.	4c\	-na	.
*	*	*	*	*	*v	*v	*	*	*	*	*	*	*	*	*	*	*	*	*	*	*	*	*	*
=19	=19	=19	=19	=19	=19	=19	=19	=19	=19	=19	=19	=19	=19	=19	=19	=19	=19	=19	=19	=19	=19	=19	=19
*	*	*tremolo	*	*	*	*	*	*	*	*	*	*	*	*	*	*	*	*	*	*	*	*	*
2G\	.	16GG/LL	1G/ 1g/	p	1r	.	2G\	.	4G/	.	4Bn\	.	(>4G\	(>4Bn\	.	2G\	.	(>4G/	.	.	(>4Bn\	e-	.
.	.	16GG/	.	.	.	.	.	.	.	.	.	.	.	.	.	.	.	.	.	.	.	.	.
.	.	16GG/	.	.	.	.	.	.	.	.	.	.	.	.	.	.	.	.	.	.	.	.	.
.	.	16GG/	.	.	.	.	.	.	.	.	.	.	.	.	.	.	.	.	.	.	.	.	.
.	.	16GG/	.	.	.	.	.	.	4An\	.	4c\	.	4An\	4c\	.	.	.	4An\)	.	.	4c\)	.	.
.	.	16GG/	.	.	.	.	.	.	.	.	.	.	.	.	.	.	.	.	.	.	.	.	.
.	.	16GG/	.	.	.	.	.	.	.	.	.	.	.	.	.	.	.	.	.	.	.	.	.
.	.	16GG/	.	.	.	.	.	.	.	.	.	.	.	.	.	.	.	.	.	.	.	.	.
2G\	.	16GG/	.	.	.	.	2G\	.	4Bn\	.	4d\	.	4Bn\	4d\	.	2G\	-i	(>4Bn\	.	.	(>4d\	.	.
.	.	16GG/	.	.	.	.	.	.	.	.	.	.	.	.	.	.	.	.	.	.	.	.	.
.	.	16GG/	.	.	.	.	.	.	.	.	.	.	.	.	.	.	.	.	.	.	.	.	.
.	.	16GG/	.	.	.	.	.	.	.	.	.	.	.	.	.	.	.	.	.	.	.	.	.
.	.	16GG/	.	.	.	.	.	.	4c\	.	4e-\)	.	4c\)	4e-\)	.	.	.	[4c\)	-i	.	4e-\)	-i	.
.	.	16GG/	.	.	.	.	.	.	.	.	.	.	.	.	.	.	.	.	.	.	.	.	.
.	.	16GG/	.	.	.	.	.	.	.	.	.	.	.	.	.	.	.	.	.	.	.	.	.
.	.	16GG/JJ	.	.	.	.	.	.	.	.	.	.	.	.	.	.	.	.	.	.	.	.	.
=20	=20	=20	=20	=20	=20	=20	=20	=20	=20	=20	=20	=20	=20	=20	=20	=20	=20	=20	=20	=20	=20	=20	=20
2G\	.	16GG/LL	2G/ 2g/	.	[2g\	.	2G\	.	4c\	.	2d\	.	4c\	2d\	.	2G\	Re-	4c\]	Re-	.	2d\	Re-	.
.	.	16GG/	.	.	.	.	.	.	.	.	.	.	.	.	.	.	.	.	.	.	.	.	.
.	.	16GG/	.	.	.	.	.	.	.	.	.	.	.	.	.	.	.	.	.	.	.	.	.
.	.	16GG/	.	.	.	.	.	.	.	.	.	.	.	.	.	.	.	.	.	.	.	.	.
.	.	16GG/	.	.	.	.	.	.	8Bn\L	.	.	.	8Bn\L	.	.	.	.	8Bn\L	.	.	.	.	.
.	.	16GG/	.	.	.	.	.	.	.	.	.	.	.	.	.	.	.	.	.	.	.	.	.
.	.	16GG/	.	.	.	.	.	.	8An\J	.	.	.	8An\J	.	.	.	.	8An\J	.	.	.	.	.
.	.	16GG/	.	.	.	.	.	.	.	.	.	.	.	.	.	.	.	.	.	.	.	.	.
2G\	.	16GG/	4.g/	.	4.g\]	.	2G\	.	4.B\	.	4.d\	.	4.B\	4.d\	.	2G\	-qui-	4.B\	.	.	4.d\	.	.
.	.	16GG/	.	.	.	.	.	.	.	.	.	.	.	.	.	.	.	.	.	.	.	.	.
.	.	16GG/	.	.	.	.	.	.	.	.	.	.	.	.	.	.	.	.	.	.	.	.	.
.	.	16GG/	.	.	.	.	.	.	.	.	.	.	.	.	.	.	.	.	.	.	.	.	.
.	.	16GG/	.	.	.	.	.	.	.	.	.	.	.	.	.	.	.	.	.	.	.	.	.
.	.	16GG/	.	.	.	.	.	.	.	.	.	.	.	.	.	.	.	.	.	.	.	.	.
.	.	16GG/	8c/	.	8c/	.	.	.	8c\	.	8c\	.	8c\	8c\	.	.	.	8c\	-qui-	.	8c\	-qui-	.
.	.	16GG/JJ	.	.	.	.	.	.	.	.	.	.	.	.	.	.	.	.	.	.	.	.	.
=21	=21	=21	=21	=21	=21	=21	=21	=21	=21	=21	=21	=21	=21	=21	=21	=21	=21	=21	=21	=21	=21	=21	=21
4A-\;	.	4C/;	4c/;	.	4c/;	.	4A-\;	.	4c\;	.	4c\;	.	4c\;	4c\;	.	4A-\;	-em	4c\;	-em	.	4c\;	-em	.
4r	.	4r	4r	.	4r	.	4r	.	2A-X\	.	4r	.	2A-X\^	4r	.	4r	.	2A-\^	do-	.	4r	.	.
2r	.	2r	2r	.	2r	.	2r	.	.	.	2r	.	.	2r	.	2r	.	.	.	.	2r	.	.
.	.	.	.	.	.	.	.	.	4G/	.	.	.	4G\	.	.	.	.	4G/	-na	.	.	.	.
=22	=22	=22	=22	=22	=22	=22	=22	=22	=22	=22	=22	=22	=22	=22	=22	=22	=22	=22	=22	=22	=22	=22	=22
1r	.	1r	1r	.	1r	.	1r	.	2F/	.	4r	.	2F\	4r	.	1r	.	2F/	e-	.	4r	.	.
.	.	.	.	.	.	.	.	.	.	.	2d\	.	.	2d\^	.	.	.	.	.	.	2d\^	do-	.
.	.	.	.	.	.	.	.	.	2F#X/	.	.	.	2F#X\	.	.	.	.	2F#X/	.	.	.	.	.
.	.	.	.	.	.	.	.	.	.	.	4c\	.	.	4c\	.	.	.	.	.	.	4c\	-na	.
=23	=23	=23	=23	=23	=23	=23	=23	=23	=23	=23	=23	=23	=23	=23	=23	=23	=23	=23	=23	=23	=23	=23	=23
4r	.	1r	1r	.	1r	.	4r	.	1G/	.	1Bn\	.	1G\	1Bn\	.	4r	.	1G/	.	.	1Bn\	e-	.
2G\^	.	.	.	.	.	.	2G\	.	.	.	.	.	.	.	.	2G\^	do-	.	.	.	.	.	.
(>4F\	.	.	.	.	.	.	4F\	.	.	.	.	.	.	.	.	4F\	-na	.	.	.	.	.	.
=24	=24	=24	=24	=24	=24	=24	=24	=24	=24	=24	=24	=24	=24	=24	=24	=24	=24	=24	=24	=24	=24	=24	=24
4E-\)	.	1r	1r	.	4r	.	4E-\	.	2.G/	.	4c\	.	2.G\	4c\	.	4E-\	e-	2.G/	.	.	(>4c\	.	.
4BBn/	.	.	.	.	2g/	.	4BBn/	.	.	.	4d\	.	.	4d\	.	(<4BBn/	.	.	.	.	4d\	.	.
4C/	.	.	.	.	.	.	4C/	.	.	.	4e-\	.	.	4e-\	.	4C/)	.	.	.	.	4e-\	.	.
4BB/	.	.	.	.	4f/ 4a-X/	.	4BB/	.	4A-X\	.	4f\	.	4A-X\	4f\	.	4BB/	-i	4A-X\	-i	.	4f\)	-i	.
=25	=25	=25	=25	=25	=25	=25	=25	=25	=25	=25	=25	=25	=25	=25	=25	=25	=25	=25	=25	=25	=25	=25	=25
2.C/	.	1r	1r	.	2.c/ 2.g/	.	2.C/	.	2G/	.	1e-\	.	2G\	1e-\	.	2.C/	Re-	2G/	Re-	.	1e-\	Re-	.
.	.	.	.	.	.	.	.	.	[2c\	.	.	.	[2c\	.	.	.	.	[2c\	.	.	.	.	.
4E-\	.	.	.	.	4r	.	4E-\	.	.	.	.	.	.	.	.	4E-\	.	.	.	.	.	.	.
=26	=26	=26	=26	=26	=26	=26	=26	=26	=26	=26	=26	=26	=26	=26	=26	=26	=26	=26	=26	=26	=26	=26	=26
2G\	.	1r	1G/ 1g/	.	1r	.	2G\	.	4c\]	.	1d\	.	4c\]	1d\	.	2G\	.	4c\]	.	.	1d\	-qui-	.
.	.	.	.	.	.	.	.	.	8Bn\L	.	.	.	8Bn\L	.	.	.	.	8Bn\L	-qui-	.	.	.	.
.	.	.	.	.	.	.	.	.	8An\J	.	.	.	8An\J	.	.	.	.	8An\J	.	.	.	.	.
2GG/	.	.	.	.	.	.	2G\	.	2B\	.	.	.	2Bn\	.	.	2G\	-qui-	2B\	-em.	.	.	.	.
=27	=27	=27	=27	=27	=27	=27	=27	=27	=27	=27	=27	=27	=27	=27	=27	=27	=27	=27	=27	=27	=27	=27	=27
4C/	.	16C/LL	4c/	.	1C/ 1c/	.	4E-\	.	4c\	.	1c\	.	4c\	1c\	.	(>4C/	-em.	4c\	A-	.	1c\	-em.	.
.	.	16C/	.	.	.	.	.	.	.	.	.	.	.	.	.	.	.	.	.	.	.	.	.
.	.	16C/	.	.	.	.	.	.	.	.	.	.	.	.	.	.	.	.	.	.	.	.	.
.	.	16C/	.	.	.	.	.	.	.	.	.	.	.	.	.	.	.	.	.	.	.	.	.
(>4C/	.	16C/	8.c/L	.	.	.	4C/	.	4En/	.	.	.	4En\	.	.	4C/	A-	4En/	.	.	.	.	.
.	.	16C/	.	.	.	.	.	.	.	.	.	.	.	.	.	.	.	.	.	.	.	.	.
.	.	16C/	.	.	.	.	.	.	.	.	.	.	.	.	.	.	.	.	.	.	.	.	.
.	.	16C/	16c/Jk	.	.	.	.	.	.	.	.	.	.	.	.	.	.	.	.	.	.	.	.
4D\	.	16C/	4c/	.	.	.	4D\	.	4F/	.	.	.	4F\	.	.	4D/	.	4F/	.	.	.	.	.
.	.	16C/	.	.	.	.	.	.	.	.	.	.	.	.	.	.	.	.	.	.	.	.	.
.	.	16C/	.	.	.	.	.	.	.	.	.	.	.	.	.	.	.	.	.	.	.	.	.
.	.	16C/	.	.	.	.	.	.	.	.	.	.	.	.	.	.	.	.	.	.	.	.	.
4En\)	.	16C/	4c/	.	.	.	4En\	.	4G/	.	.	.	4G\	.	.	4En\)	.	4G/	.	.	.	.	.
.	.	16C/	.	.	.	.	.	.	.	.	.	.	.	.	.	.	.	.	.	.	.	.	.
.	.	16C/	.	.	.	.	.	.	.	.	.	.	.	.	.	.	.	.	.	.	.	.	.
.	.	16C/JJ	.	.	.	.	.	.	.	.	.	.	.	.	.	.	.	.	.	.	.	.	.
=28	=28	=28	=28	=28	=28	=28	=28	=28	=28	=28	=28	=28	=28	=28	=28	=28	=28	=28	=28	=28	=28	=28	=28
*	*	*	*	*	*	*	*	*	*	*	*	*	*	*	*	*	*	*	*	*	*^	*	*
2F\	.	16C/LL	1c/	.	1C/ 1c/	.	2F\	.	2A-\	.	2c\	.	2A-\	2c\	.	[2F\	.	[2A-/	.	.	2c/	1c\	A-	.
.	.	16C/	.	.	.	.	.	.	.	.	.	.	.	.	.	.	.	.	.	.	.	.	.	.
.	.	16C/	.	.	.	.	.	.	.	.	.	.	.	.	.	.	.	.	.	.	.	.	.	.
.	.	16C/	.	.	.	.	.	.	.	.	.	.	.	.	.	.	.	.	.	.	.	.	.	.
.	.	16C/	.	.	.	.	.	.	.	.	.	.	.	.	.	.	.	.	.	.	.	.	.	.
.	.	16C/	.	.	.	.	.	.	.	.	.	.	.	.	.	.	.	.	.	.	.	.	.	.
.	.	16C/	.	.	.	.	.	.	.	.	.	.	.	.	.	.	.	.	.	.	.	.	.	.
.	.	16C/JJ	.	.	.	.	.	.	.	.	.	.	.	.	.	.	.	.	.	.	.	.	.	.
4.F\	.	4.C/	.	.	.	.	4.F\	.	4.A-\	.	4.f\	.	4.A-\	4.f\	.	4.F\]	.	4.A-/]	.	.	4.f/	.	.	.
8C/	.	8C/	.	.	.	.	8C/	.	8G/	.	8en\	.	8G\	8en\	.	8C/	.	8G/	.	.	8en/	.	.	.
*	*	*	*	*	*	*	*	*	*	*	*	*	*	*	*	*	*	*	*	*	*v	*v	*	*
=29	=29	=29	=29	=29	=29	=29	=29	=29	=29	=29	=29	=29	=29	=29	=29	=29	=29	=29	=29	=29	=29	=29	=29
!LO:TX:a:t=P:problem=w źródle podwója cała nuta	!	!LO:TX:a:t=P:problem=w źródle podwója cała nuta	!LO:TX:a:t=P:problem=w źródle podwója cała nuta	!	!LO:TX:a:t=P:problem=w źródle podwója cała nuta	!	!LO:TX:a:t=P:problem=w źródle podwója cała nuta	!	!LO:TX:a:t=P:problem=w źródle podwója cała nuta	!	!LO:TX:a:t=P:problem=w źródle podwója cała nuta	!	!LO:TX:a:t=P:problem=w źródle podwója cała nuta	!LO:TX:a:t=P:problem=w źródle podwója cała nuta	!	!LO:TX:a:t=P:problem=w źródle podwója cała nuta	!	!LO:TX:a:t=P:problem=w źródle podwója cała nuta	!	!	!LO:TX:a:t=P:problem=w źródle podwója cała nuta	!	!
1C/	.	1C/	1c/	.	1C/ 1c/	.	1C/	.	1G/	.	1en\	.	1G\ 1c\	1en\	.	1C/	-men.	1G/	-men.	.	1c\ 1en\	-men.	.
==	==	==	==	==	==	==	==	==	==	==	==	==	==	==	==	==	==	==	==	==	==	==	==
*-	*-	*-	*-	*-	*-	*-	*-	*-	*-	*-	*-	*-	*-	*-	*-	*-	*-	*-	*-	*-	*-	*-	*-
!!!system-decoration: [(s1,s2,s3,s4,s5)][(s6,s7,s8)][(s9,s10,s11,s12)]
!!!RDF**kern: > = above
!!!RDF**kern: < = below
!!!ENC: Andrzej Borzym
!!!END: 2020-02-10
!!!ENC: Marta Lawrence
!!!END: 2020-03-10
!!!YEC: Copyright 2022 Narodowy Instytut Fryderyka Chopina (https://polishscores.org)
!!!YEM: License CC-BY-4.0 (https://creativecommons.org/licenses/by/4.0)
